X: 28433
T: Mullingar Lea, The
R: reel
M: 4/4
K: Gmixolydian
BGdG GFDE|F2AF CF (3ABc|BGG^F GFDE|FAdc BGGA|
BGdG GFDE|F2AF CF (3ABc|BG~G2 DEFE|FAdc BG~G2||
~g3d Bcde|~f3c ABcd|~g3d BcdB|dgga bga^f|
~g3d Bcde|~f3c ABcd|ed^cd DEFE|FAdc BG~G2||

